assets/src/edit-story/icons/link.svg

<svg fill="none" height="18" viewBox="0 0 18 18" width="18" xmlns="http://www.w3.org/2000/svg"><path clip-rule="evenodd" d="m8.25049 11.2509h-3c-1.2375 0-2.25-1.0125-2.25-2.25005 0-1.2375 1.0125-2.25 2.25-2.25h3v-1.5h-3c-2.07 0-3.75 1.68-3.75 3.75 0 2.07005 1.68 3.75005 3.75 3.75005h3zm4.49981-6.00005h-3.00004v1.5h3.00004c1.2375 0 2.25 1.0125 2.25 2.25 0 1.23755-1.0125 2.25005-2.25 2.25005h-3.00004v1.5h3.00004c2.07 0 3.75-1.68 3.75-3.75005 0-2.07-1.68-3.75-3.75-3.75zm-.7498 3.00084h-6.00001v1.5h6.00001z" fill="#fff" fill-rule="evenodd"/></svg>

<svg width="18" height="18" viewBox="0 0 18 18" fill="none" xmlns="http://www.w3.org/2000/svg">
<path fill-rule="evenodd" clip-rule="evenodd" d="M8.25049 11.2509H5.25049C4.01299 11.2509 3.00049 10.2384 3.00049 9.00085C3.00049 7.76335 4.01299 6.75085 5.25049 6.75085H8.25049V5.25085H5.25049C3.18049 5.25085 1.50049 6.93085 1.50049 9.00085C1.50049 11.0709 3.18049 12.7509 5.25049 12.7509H8.25049V11.2509ZM12.7503 5.25085H9.75026V6.75085H12.7503C13.9878 6.75085 15.0003 7.76335 15.0003 9.00085C15.0003 10.2384 13.9878 11.2509 12.7503 11.2509H9.75026V12.7509H12.7503C14.8203 12.7509 16.5003 11.0709 16.5003 9.00085C16.5003 6.93085 14.8203 5.25085 12.7503 5.25085ZM12.0005 8.25169H6.00049V9.75169H12.0005V8.25169Z" fill="white"/>
</svg>
